svg/octagram_edit_outline.svg

<svg xmlns="http://www.w3.org/2000/svg" viewBox="0 0 24 24"><path d="M3.88 12 2.2 16.06l4.06 1.68 1.68 4.06L11 20.53v-2.17l-2 .83-1.21-2.98L4.81 15l1.24-3-1.24-3 2.98-1.21L9 4.81l3 1.24 3-1.24 1.21 2.98L19.19 9l-1.24 3 .05.13 1.38-1.38c.44-.45 1-.69 1.56-.75l.86-2.06-4.06-1.68-1.68-4.06L12 3.88 7.94 2.2 6.26 6.26 2.2 7.94zm18.97 1.47-1.32-1.32c-.2-.2-.53-.2-.72 0l-.98.98 2.04 2.04.98-.98c.2-.19.2-.52 0-.72M13 19.96V22h2.04l6.13-6.12-2.04-2.05z"/></svg>

<svg xmlns="http://www.w3.org/2000/svg" id="mdi-octagram-edit-outline" viewBox="0 0 24 24"><path d="M3.88 12L2.2 16.06L6.26 17.74L7.94 21.8L11 20.53V18.36L9 19.19L7.79 16.21L4.81 15L6.05 12L4.81 9L7.79 7.79L9 4.81L12 6.05L15 4.81L16.21 7.79L19.19 9L17.95 12L18 12.13L19.38 10.75C19.82 10.3 20.38 10.06 20.94 10L21.8 7.94L17.74 6.26L16.06 2.2L12 3.88L7.94 2.2L6.26 6.26L2.2 7.94L3.88 12M22.85 13.47L21.53 12.15C21.33 11.95 21 11.95 20.81 12.15L19.83 13.13L21.87 15.17L22.85 14.19C23.05 14 23.05 13.67 22.85 13.47M13 19.96V22H15.04L21.17 15.88L19.13 13.83L13 19.96Z" /></svg>
